public/images/hashed/80f10f0124bdb038ba336cd69c583673.svg

<?xml version="1.0" encoding="UTF-8"?>
<svg width="80px" height="80px" viewBox="0 0 80 80" version="1.1" xmlns="http://www.w3.org/2000/svg" xmlns:xlink="http://www.w3.org/1999/xlink">
    <!-- Generator: Sketch 64 (93537) - https://sketch.com -->
    <title>Icon-Architecture/64/Arch_AWS-Batch_64</title>
    <desc>Created with Sketch.</desc>
    <defs>
        <linearGradient x1="0%" y1="100%" x2="100%" y2="0%" id="linearGradient-1">
            <stop stop-color="#C8511B" offset="0%"></stop>
            <stop stop-color="#FF9900" offset="100%"></stop>
        </linearGradient>
    </defs>
    <g id="Icon-Architecture/64/Arch_AWS-Batch_64" stroke="none" stroke-width="1" fill="none" fill-rule="evenodd">
        <g id="Icon-Architecture-BG/64/Compute" fill="url(#linearGradient-1)">
            <rect id="Rectangle" x="0" y="0" width="80" height="80"></rect>
        </g>
        <path d="M40.2258065,58.897 C41.4647177,58.897 42.4707661,59.894 42.4707661,61.124 C42.4707661,62.354 41.4647177,63.351 40.2258065,63.351 C38.9868952,63.351 37.9808468,62.354 37.9808468,61.124 C37.9808468,59.894 38.9868952,58.897 40.2258065,58.897 M21.3014113,40.876 C21.3014113,42.106 20.2953629,43.103 19.0564516,43.103 C17.8175403,43.103 16.8114919,42.106 16.8114919,40.876 C16.8114919,39.647 17.8175403,38.649 19.0564516,38.649 C20.2953629,38.649 21.3014113,39.647 21.3014113,40.876 M61.3790323,66 C58.797379,66 56.7752016,64.066 56.7752016,61.598 C56.7752016,59.08 58.8407258,57.031 61.3790323,57.031 C63.9183468,57.031 65.983871,59.08 65.983871,61.598 C65.983871,64.066 63.9616935,66 61.3790323,66 M56.7752016,41 C56.7752016,38.482 58.8407258,36.433 61.3790323,36.433 C63.9183468,36.433 65.983871,38.482 65.983871,41 C65.983871,43.518 63.9183468,45.567 61.3790323,45.567 C58.8407258,45.567 56.7752016,43.518 56.7752016,41 M40.2258065,45.567 C37.6864919,45.567 35.6219758,43.518 35.6219758,41 C35.6219758,38.482 37.6864919,36.433 40.2258065,36.433 C42.765121,36.433 44.8296371,38.482 44.8296371,41 C44.8296371,43.518 42.765121,45.567 40.2258065,45.567 M45.266129,61 C45.266129,63.851 43.0997984,66 40.2258065,66 C37.3518145,66 35.1854839,63.851 35.1854839,61 C35.1854839,58.149 37.3518145,56 40.2258065,56 C43.0997984,56 45.266129,58.149 45.266129,61 M34.1774194,21 C34.1774194,17.86 37.0594758,15 40.2258065,15 C43.3921371,15 46.2741935,17.86 46.2741935,21 C46.2741935,24.14 43.3921371,27 40.2258065,27 C37.0594758,27 34.1774194,24.14 34.1774194,21 M19.0564516,46 C16.1824597,46 14.016129,43.851 14.016129,41 C14.016129,38.106 16.2772177,35.752 19.0564516,35.752 C21.8356855,35.752 24.0967742,38.106 24.0967742,41 C24.0967742,43.851 21.9304435,46 19.0564516,46 M23.6451613,61.564 C23.6451613,64.051 21.6229839,66 19.0403226,66 C16.4586694,66 14.4364919,64.051 14.4364919,61.564 C14.4364919,59.045 16.5020161,56.997 19.0403226,56.997 C21.5796371,56.997 23.6451613,59.045 23.6451613,61.564 M62.3870968,55.115 L62.3870968,47.482 C65.5594758,46.999 68,44.28 68,41 C68,37.379 65.0292339,34.433 61.3790323,34.433 C58.0725806,34.433 55.3316532,36.853 54.8447581,40 L46.7600806,40 C46.3235887,37.18 44.0766129,34.951 41.233871,34.518 L41.233871,28.923 C45.09375,28.397 48.2903226,24.924 48.2903226,21 C48.2903226,16.738 44.5221774,13 40.2258065,13 C35.9294355,13 32.1612903,16.738 32.1612903,21 C32.1612903,24.924 35.3578629,28.397 39.2177419,28.923 L39.2177419,34.518 C36.375,34.951 34.1280242,37.18 33.6915323,40 L26.0383065,40 C25.5604839,36.477 22.6159274,33.752 19.0564516,33.752 C15.1663306,33.752 12,37.004 12,41 C12,44.584 14.5866935,47.451 18.0483871,47.924 L18.0483871,55.079 C14.8689516,55.556 12.4203629,58.278 12.4203629,61.564 C12.4203629,65.173 15.328629,68 19.0403226,68 C22.7530242,68 25.6612903,65.173 25.6612903,61.564 C25.6612903,58.289 23.2298387,55.574 20.0645161,55.084 L20.0645161,47.924 C23.1955645,47.496 25.6048387,45.107 26.0362903,42 L33.6915323,42 C34.1280242,44.82 36.375,47.049 39.2177419,47.482 L39.2177419,54.076 C35.7560484,54.549 33.1693548,57.416 33.1693548,61 C33.1693548,64.925 36.2691532,68 40.2258065,68 C44.1824597,68 47.2822581,64.925 47.2822581,61 C47.2822581,57.416 44.6955645,54.549 41.233871,54.076 L41.233871,47.482 C44.0766129,47.049 46.3235887,44.82 46.7600806,42 L54.8447581,42 C55.2822581,44.82 57.5282258,47.049 60.3709677,47.482 L60.3709677,55.115 C57.1995968,55.599 54.7590726,58.318 54.7590726,61.598 C54.7590726,65.188 57.6673387,68 61.3790323,68 C65.0917339,68 68,65.188 68,61.598 C68,58.318 65.5594758,55.599 62.3870968,55.115" id="AWS-Batch_Icon_64_Squid" fill="#FFFFFF"></path>
    </g>
</svg>

<svg xmlns="http://www.w3.org/2000/svg" width="80" height="80"><defs><linearGradient id="a" x1="0%" x2="100%" y1="100%" y2="0%"><stop offset="0%" stop-color="#C8511B"/><stop offset="100%" stop-color="#F90"/></linearGradient></defs><g fill="none" fill-rule="evenodd"><path fill="url(#a)" d="M0 0h80v80H0z"/><path fill="#FFF" d="M40.226 58.897c1.239 0 2.245.997 2.245 2.227a2.237 2.237 0 0 1-2.245 2.227 2.237 2.237 0 0 1-2.245-2.227 2.237 2.237 0 0 1 2.245-2.227M21.3 40.876a2.237 2.237 0 0 1-2.245 2.227 2.237 2.237 0 0 1-2.245-2.227 2.237 2.237 0 0 1 2.245-2.227c1.24 0 2.245.998 2.245 2.227M61.38 66c-2.582 0-4.604-1.934-4.604-4.402 0-2.518 2.066-4.567 4.604-4.567 2.54 0 4.605 2.049 4.605 4.567 0 2.468-2.022 4.402-4.605 4.402m-4.604-25c0-2.518 2.066-4.567 4.604-4.567 2.54 0 4.605 2.049 4.605 4.567 0 2.518-2.066 4.567-4.605 4.567-2.538 0-4.604-2.049-4.604-4.567m-16.55 4.567c-2.539 0-4.603-2.049-4.603-4.567 0-2.518 2.064-4.567 4.604-4.567S44.83 38.482 44.83 41c0 2.518-2.065 4.567-4.604 4.567M45.266 61c0 2.851-2.166 5-5.04 5s-5.04-2.149-5.04-5 2.166-5 5.04-5 5.04 2.149 5.04 5M34.177 21c0-3.14 2.882-6 6.049-6 3.166 0 6.048 2.86 6.048 6s-2.882 6-6.048 6c-3.167 0-6.049-2.86-6.049-6m-15.12 25c-2.875 0-5.04-2.149-5.04-5 0-2.894 2.26-5.248 5.04-5.248 2.779 0 5.04 2.354 5.04 5.248 0 2.851-2.167 5-5.04 5m4.588 15.564c0 2.487-2.022 4.436-4.605 4.436-2.581 0-4.604-1.949-4.604-4.436 0-2.519 2.066-4.567 4.604-4.567 2.54 0 4.605 2.048 4.605 4.567m38.742-6.449v-7.633C65.56 46.999 68 44.28 68 41c0-3.621-2.97-6.567-6.621-6.567-3.306 0-6.047 2.42-6.534 5.567H46.76c-.436-2.82-2.683-5.049-5.526-5.482v-5.595c3.86-.526 7.056-3.999 7.056-7.923 0-4.262-3.768-8-8.064-8-4.297 0-8.065 3.738-8.065 8 0 3.924 3.197 7.397 7.057 7.923v5.595c-2.843.433-5.09 2.662-5.526 5.482h-7.654c-.478-3.523-3.422-6.248-6.982-6.248C15.166 33.752 12 37.004 12 41c0 3.584 2.587 6.451 6.048 6.924v7.155c-3.179.477-5.628 3.199-5.628 6.485 0 3.609 2.909 6.436 6.62 6.436 3.713 0 6.621-2.827 6.621-6.436 0-3.275-2.431-5.99-5.596-6.48v-7.16c3.13-.428 5.54-2.817 5.971-5.924h7.656c.436 2.82 2.683 5.049 5.526 5.482v6.594c-3.462.473-6.049 3.34-6.049 6.924 0 3.925 3.1 7 7.057 7 3.956 0 7.056-3.075 7.056-7 0-3.584-2.586-6.451-6.048-6.924v-6.594c2.843-.433 5.09-2.662 5.526-5.482h8.085c.437 2.82 2.683 5.049 5.526 5.482v7.633c-3.171.484-5.612 3.203-5.612 6.483 0 3.59 2.908 6.402 6.62 6.402C65.092 68 68 65.188 68 61.598c0-3.28-2.44-5.999-5.613-6.483"/></g></svg>
